!!!COM:	Josquin des Pres?
**kern	**kern
*part2	*part1
*staff2	*staff1
*clefF4	*clefG2
*k[]	*k[]
*M3/1	*M3/1
=1-	=1-
1E	0r
1.G	.
.	1r
2G	.
=2	=2
0G	1e
.	1.g
2r	.
[2G	2g
=3	=3
4G]	1g
4F	.
4E	.
4D	.
2C	2r
2.c	2.a
4B	4g
4A	4f
4G	4e
=4	=4
2A	2f
2.G	2.e
4F	4d
4E	4c
4D	4B
1E	2c
.	[2B
=5	=5
2D	2B]
2C	1A
1BB	.
.	2G
2.AA	1A
4BB	.
=6	=6
4C	4A
4D	4B
2.E	4c
.	4d
.	2e
4F	.
4G	2f
4A	.
4B	4g
4A	4f
4G	4e
4F	4d
=7	=7
2E	2g
2D	2f
2A	2e
2G	1e
1F	.
.	2d
=8	=8
0.E	0.e
==	==
*-	*-
